assets/icons/delete.svg

<svg height="64" viewBox="0 0 48 64" width="48" xmlns="http://www.w3.org/2000/svg"><g fill="#172735"><path d="m105.333 5.333h-7.176l-.827-1.648a6.627 6.627 0 0 0 -5.962-3.685h-6.739a6.63 6.63 0 0 0 -5.963 3.685l-.824 1.648h-7.175a6.674 6.674 0 0 0 -6.667 6.667v2.667a1.334 1.334 0 0 0 1.333 1.333h45.333a1.334 1.334 0 0 0 1.334-1.333v-2.667a6.674 6.674 0 0 0 -6.667-6.667zm4 8h-42.666v-1.333a4 4 0 0 1 4-4h8a1.335 1.335 0 0 0 1.192-.736l1.195-2.387a3.976 3.976 0 0 1 3.579-2.211h6.737a3.982 3.982 0 0 1 3.579 2.211l1.192 2.387a1.335 1.335 0 0 0 1.192.736h8a4 4 0 0 1 4 4z" transform="translate(-64)"/><path d="m126.666 106.667h-40a1.334 1.334 0 0 0 -1.333 1.333v40a9.344 9.344 0 0 0 9.333 9.333h24a9.344 9.344 0 0 0 9.334-9.333v-40a1.334 1.334 0 0 0 -1.334-1.333zm-1.333 41.333a6.674 6.674 0 0 1 -6.667 6.667h-24a6.674 6.674 0 0 1 -6.666-6.667v-38.666h37.333z" transform="translate(-82.666 -93.334)"/><path d="m150.666 170.667a1.334 1.334 0 0 0 -1.333 1.333v32a1.333 1.333 0 0 0 2.667 0v-32a1.334 1.334 0 0 0 -1.334-1.333z" transform="translate(-138.666 -149.334)"/><path d="m214.666 170.667a1.334 1.334 0 0 0 -1.333 1.333v32a1.333 1.333 0 0 0 2.667 0v-32a1.334 1.334 0 0 0 -1.334-1.333z" transform="translate(-194.666 -149.334)"/><path d="m278.666 170.667a1.334 1.334 0 0 0 -1.333 1.333v32a1.333 1.333 0 0 0 2.667 0v-32a1.334 1.334 0 0 0 -1.334-1.333z" transform="translate(-250.666 -149.334)"/><path d="m342.666 170.667a1.334 1.334 0 0 0 -1.333 1.333v32a1.333 1.333 0 1 0 2.667 0v-32a1.334 1.334 0 0 0 -1.334-1.333z" transform="translate(-306.666 -149.334)"/></g></svg>

<svg xmlns="http://www.w3.org/2000/svg" width="48" height="64" viewBox="0 0 48 64">
  <g id="Group_82" data-name="Group 82" transform="translate(-86 -1788)">
    <path id="Path_38" data-name="Path 38" d="M105.333,5.333H98.157l-.827-1.648A6.627,6.627,0,0,0,91.368,0H84.629a6.63,6.63,0,0,0-5.963,3.685l-.824,1.648H70.667A6.674,6.674,0,0,0,64,12v2.667A1.334,1.334,0,0,0,65.333,16h45.333A1.334,1.334,0,0,0,112,14.667V12A6.674,6.674,0,0,0,105.333,5.333Zm4,8H66.667V12a4,4,0,0,1,4-4h8a1.335,1.335,0,0,0,1.192-.736l1.195-2.387a3.976,3.976,0,0,1,3.579-2.211H91.37a3.982,3.982,0,0,1,3.579,2.211l1.192,2.387A1.335,1.335,0,0,0,97.333,8h8a4,4,0,0,1,4,4v1.333Z" transform="translate(22 1788)" fill="#172735"/>
    <path id="Path_39" data-name="Path 39" d="M126.666,106.667h-40A1.334,1.334,0,0,0,85.333,108v40a9.344,9.344,0,0,0,9.333,9.333h24A9.344,9.344,0,0,0,128,148V108A1.334,1.334,0,0,0,126.666,106.667ZM125.333,148a6.674,6.674,0,0,1-6.667,6.667h-24A6.674,6.674,0,0,1,88,148V109.334h37.333V148Z" transform="translate(3.334 1694.666)" fill="#172735"/>
    <path id="Path_40" data-name="Path 40" d="M150.666,170.667A1.334,1.334,0,0,0,149.333,172v32A1.333,1.333,0,0,0,152,204V172A1.334,1.334,0,0,0,150.666,170.667Z" transform="translate(-52.666 1638.666)" fill="#172735"/>
    <path id="Path_41" data-name="Path 41" d="M214.666,170.667A1.334,1.334,0,0,0,213.333,172v32A1.333,1.333,0,0,0,216,204V172A1.334,1.334,0,0,0,214.666,170.667Z" transform="translate(-108.666 1638.666)" fill="#172735"/>
    <path id="Path_42" data-name="Path 42" d="M278.666,170.667A1.334,1.334,0,0,0,277.333,172v32A1.333,1.333,0,0,0,280,204V172A1.334,1.334,0,0,0,278.666,170.667Z" transform="translate(-164.666 1638.666)" fill="#172735"/>
    <path id="Path_43" data-name="Path 43" d="M342.666,170.667A1.334,1.334,0,0,0,341.333,172v32A1.333,1.333,0,1,0,344,204V172A1.334,1.334,0,0,0,342.666,170.667Z" transform="translate(-220.666 1638.666)" fill="#172735"/>
  </g>
</svg>
